X: 10913
T: THOU ART GANE AWA FRAE ME, MARY.
Q: "Slow, with feeling."
%R: air, strathspey
B: W. Hamilton "Universal Tune-Book" Vol. 1 Glasgow 1844 p.91 #3
S: http://imslp.org/wiki/Hamilton's_Universal_Tune-Book_(Various)
Z: 2016 John Chambers <jc:trillian.mit.edu>
M: C
L: 1/16
K: D
%%slurgraces yes
%%graceslurs yes
% - - - - - - - - - - - - - - - - - - - - - - - - -
!pp!f3e |\
Td3cd2B2 {e}d6 (cB) | {B}A3BA2F2 A4 f3e |\
d3cd2B2 A3B d2e2 | f3g fede d4 !f!f3e |\
d3cd2B2 d6 cB |
A3BA2F2 A4 f3e |\
d3cd2B2 A3B defg | f3g fede d4 |]\
z2d2 |\
d3ef2g2 a6 b2 | a3^ga2f2 {f}e4 z2d2 |
d3ef2g2 a6 b2 | {b}a4 g2f2 e4 z2!f!d2 |\
d3ef2g2 a6 b2 | {b}a4 gfef He4 f3e |\
d3cd2B2 A3B defg | f3g {f}e2de d4 |]
% - - - - - - - - - - - - - - - - - - - - - - - - -

%%sep 1 1 500
%%sep 1 1 500

